!!!COM: Hugo Wolf
!!!CNT: Deutscher
!!!TXO: Deutsche 
!!!OTL: Morgentau
!!!OPR: Sechs Lieder fu2r eine Frauenstimme
!!!ONM: No. 1
!!!LYR: A. Reinhold (?)
!!!ODT: 1877/
!!!ENC: Brian Bice
!!!YOR: 65 Songs for voice and piano, International Music Company, 1960
!!NB: Vocal melody and text only encoded.
**kern	**silbe
*clefG2	*
*k[f#c#]	*
*M2/4	*
=0	=0
4.r	.
{8a	{Der
=1	=1
8a	Fru2h-
16f#	-hauch
16e	|
8f#	hat
8a	ge-
=2	=2
4b	-fa2-
8a}	-chelt}
{8a	{hin-
=3	=3
8dd	-weg
8cc#	die
(8.b	schwu2-
16ee)	-le
=4	=4
4ee}	Nacht,}
8r	.
{8ee	{die
=5	=5
8ee	Flur
16b	hold-
16a#	|
8b	-se-
8dd	-lig
=6	=6
4dd	la2-
8an}	-chelt}
{8an	{in
=7	=7
8g#	ih-
16a	-rer
16b	|
8.cc#	Len-
16cc#	-zes-
=8	=8
(4.cc#}	pracht;}
{8a)	{mild
=9	=9
8a	singt
16f#	vom
16e	|
8f#	dunk-
8a	-len
=10	=10
4b	Bau-
8a}	-me}
{8a	{ein
=11	=11
8dd	Vo2g-
8dd	-lein
8cc#	in
8b	der
=12	=12
4ee}	Fru2h,}
8r	.
{8ee	{es
=13	=13
8ee	singt
16b	noch
16a#	|
8b	halb
8dd	im
=14	=14
4dd	Trau-
8an}	-me,}
{8b	{gar
=15	=15
8cc#	su-
16ee	-sse
16dd	|
8.cc#	Me-
16b	-lo-
=16	=16
(4b	-die
8a)}	|}
{8a	{Die
=17	=17
8a	Ro-
16f#	-sen-
16e	|
8f#	-knos-
8a	-pe
=18	=18
4b	he-
8a}	-bet}
{8a	{em-
=19	=19
8dd	-por
8cc#	ihr
8.b	Ko2pf-
16ee	-chen
=20	=20
4ee}	bang,}
8r	.
{8ee	{denn
=21	=21
8ee	wun-
16b	-der-
16a#	|
8b	-sam
8dd	durch-
=22	=22
4dd	-be-
8an}	-bet}
{8b	{hat
=23	=23
8cc#	sie
16b	der
16cc#	|
16ee	su2-
8dd	|
16b	-sse
=24	=24
(4b	Sang;
8a)}	|}
{8g	{und
=25	=25
8f#	mehr
8f#	und
8f#	mehr
8f#	ent-
=26	=26
4a	-hu2l-
8f#}	-let}
{8f#	{sich
=27	=27
8g#	ih-
8g#	-rer
8a#	Bla2t-
8b#	-ter
=28	=28
4cc#}	Fu2ll,}
8r	.
{8cc#	{und
=29	=29
8.cc#	ei-
16cc#	-ne
(16dd	Tra2-
16cc#	|
16b	-ne
16cc#)	|
=30	=30
8ee	quil-
8dd	|
8cc#}	-let}
{8b	{her-
=31	=31
4a	-vor
8r	.
8f#	so
=32	=32
4b	heim-
(4cc#	-lich
ddq)	|
=33	=33
[2dd	still.
=34	=34
2dd_	|
=35	=35
8dd]}	|}
8r	.
4r	.
*-	*-
